icons/remote-control-line.svg

<svg xmlns="http://www.w3.org/2000/svg" width="24" height="24" fill="none"><g clip-path="url(#a)"><g><path fill="#121212" d="M17 12C17.2652 12 17.5196 12.1054 17.7071 12.2929C17.8947 12.4804 18 12.7348 18 13V22H16V14H8.00001V22H6.00001V13C6.00001 12.7348 6.10537 12.4804 6.2929 12.2929C6.48044 12.1054 6.73479 12 7.00001 12H17ZM12 16V18H10V16H12ZM12 6C13.1144 5.99967 14.207 6.30972 15.1551 6.89541C16.1032 7.4811 16.8695 8.31928 17.368 9.316L15.578 10.211C15.246 9.54616 14.7353 8.98697 14.1032 8.59613C13.4711 8.2053 12.7427 7.99827 11.9995 7.99827C11.2564 7.99827 10.5279 8.2053 9.89583 8.59613C9.26376 8.98697 8.75306 9.54616 8.42101 10.211L6.63201 9.316C7.13054 8.31928 7.89681 7.4811 8.84493 6.89541C9.79306 6.30972 10.8856 5.99967 12 6ZM12 2C13.8573 1.9996 15.6781 2.51647 17.2582 3.49267C18.8382 4.46888 20.1152 5.86584 20.946 7.527L19.157 8.422C18.4924 7.09297 17.4708 5.97529 16.2067 5.19425C14.9426 4.41321 13.4859 3.99968 12 4C10.5141 3.99968 9.05742 4.41321 7.79331 5.19425C6.52919 5.97529 5.50759 7.09297 4.84301 8.422L3.05301 7.527C3.88387 5.86569 5.16101 4.46862 6.74129 3.49241C8.32157 2.51619 10.1425 1.99941 12 2Z"/></g></g><defs><clipPath id="a"><rect width="24" height="24" fill="white"/></clipPath></defs></svg>

<svg width="24" height="24" fill="none" xmlns="http://www.w3.org/2000/svg"><g clip-path="url(#a)"><path d="M17 12a1 1 0 0 1 1 1v9h-2v-8H8v8H6v-9a1 1 0 0 1 1-1h10Zm-5 4v2h-2v-2h2Zm0-10a6 6 0 0 1 5.368 3.316l-1.79.895a4 4 0 0 0-7.157 0l-1.789-.895A6 6 0 0 1 12 6Zm0-4a10 10 0 0 1 8.946 5.527l-1.789.895A8 8 0 0 0 7.793 5.194a8 8 0 0 0-2.95 3.228l-1.79-.895A10 10 0 0 1 12 2Z" /></g><defs><clipPath id="a"><path fill="#fff" d="M0 0h24v24H0z"/></clipPath></defs></svg>
